images/icons/PBS-closed_caption_line.svg

<?xml version="1.0" encoding="UTF-8" standalone="no"?>
<svg width="256px" height="256px" viewBox="0 0 256 256" version="1.1" xmlns="http://www.w3.org/2000/svg" xmlns:xlink="http://www.w3.org/1999/xlink">
    <!-- Generator: Sketch 39.1 (31720) - http://www.bohemiancoding.com/sketch -->
    <title>PBS-closed_caption_line</title>
    <desc>Created with Sketch.</desc>
    <defs></defs>
    <g id="Page-1" stroke="none" stroke-width="1" fill="none" fill-rule="evenodd">
        <g id="PBS-closed_caption_line">
            <path d="M102.181641,110.462891 C98.3261526,110.462891 95.3183702,112.041976 93.1582031,115.200195 C90.9980361,118.358414 89.9179688,122.712863 89.9179688,128.263672 C89.9179688,139.802792 94.3065967,145.572266 103.083984,145.572266 C105.736341,145.572266 108.306628,145.203129 110.794922,144.464844 C113.283216,143.726559 115.785144,142.837896 118.300781,141.798828 L118.300781,155.498047 C113.29685,157.712902 107.63675,158.820312 101.320312,158.820312 C92.269486,158.820312 85.3310788,156.195339 80.5048828,150.945312 C75.6786868,145.695286 73.265625,138.107472 73.265625,128.181641 C73.265625,121.974578 74.4345586,116.519555 76.7724609,111.816406 C79.1103633,107.113258 82.4736109,103.497083 86.8623047,100.967773 C91.2509985,98.4384639 96.4120797,97.1738281 102.345703,97.1738281 C108.826204,97.1738281 115.019502,98.5820172 120.925781,101.398438 L115.962891,114.154297 C113.748036,113.115229 111.533214,112.240238 109.318359,111.529297 C107.103505,110.818356 104.724622,110.462891 102.181641,110.462891 L102.181641,110.462891 Z M158.009766,110.462891 C154.154278,110.462891 151.146495,112.041976 148.986328,115.200195 C146.826161,118.358414 145.746094,122.712863 145.746094,128.263672 C145.746094,139.802792 150.134722,145.572266 158.912109,145.572266 C161.564466,145.572266 164.134753,145.203129 166.623047,144.464844 C169.111341,143.726559 171.613269,142.837896 174.128906,141.798828 L174.128906,155.498047 C169.124975,157.712902 163.464875,158.820312 157.148438,158.820312 C148.097611,158.820312 141.159204,156.195339 136.333008,150.945312 C131.506812,145.695286 129.09375,138.107472 129.09375,128.181641 C129.09375,121.974578 130.262684,116.519555 132.600586,111.816406 C134.938488,107.113258 138.301736,103.497083 142.69043,100.967773 C147.079124,98.4384639 152.240205,97.1738281 158.173828,97.1738281 C164.654329,97.1738281 170.847627,98.5820172 176.753906,101.398438 L171.791016,114.154297 C169.576161,113.115229 167.361339,112.240238 165.146484,111.529297 C162.93163,110.818356 160.552747,110.462891 158.009766,110.462891 L158.009766,110.462891 Z" id="CC" fill="#000000"></path>
            <path d="M238.003047,52 C239.105934,52 240,52.8926386 240,54.0055126 L240,201.994487 C240,203.102101 239.109005,204 238.003047,204 L14.996953,204 C13.8940663,204 13,203.107361 13,201.994487 L13,54.0055126 C13,52.8978986 13.890995,52 14.996953,52 L238.003047,52 Z M225.064215,67.4054054 L225.064215,188.545405 L27.9342105,188.545405 L27.9342105,67.4054054 L225.064215,67.4054054 Z" id="Combined-Shape" fill="#222222"></path>
        </g>
    </g>
</svg>

<svg width="256" height="256" viewBox="0 0 256 256" xmlns="http://www.w3.org/2000/svg"><title>PBS-closed_caption_line</title><g fill="none" fill-rule="evenodd"><path d="M102.182 110.463c-3.856 0-6.864 1.579-9.024 4.737-2.16 3.158-3.24 7.513-3.24 13.064 0 11.539 4.389 17.308 13.166 17.308 2.652 0 5.223-.369 7.71-1.107a77.145 77.145 0 0 0 7.507-2.666v13.699c-5.004 2.215-10.664 3.322-16.98 3.322-9.052 0-15.99-2.625-20.816-7.875-4.826-5.25-7.24-12.838-7.24-22.763 0-6.207 1.17-11.662 3.507-16.366 2.338-4.703 5.702-8.319 10.09-10.848 4.389-2.53 9.55-3.794 15.484-3.794 6.48 0 12.674 1.408 18.58 4.224l-4.963 12.756a55.798 55.798 0 0 0-6.645-2.625c-2.214-.71-4.593-1.066-7.136-1.066zm55.828 0c-3.856 0-6.864 1.579-9.024 4.737-2.16 3.158-3.24 7.513-3.24 13.064 0 11.539 4.389 17.308 13.166 17.308 2.652 0 5.223-.369 7.711-1.107a77.145 77.145 0 0 0 7.506-2.666v13.699c-5.004 2.215-10.664 3.322-16.98 3.322-9.051 0-15.99-2.625-20.816-7.875-4.826-5.25-7.24-12.838-7.24-22.763 0-6.207 1.17-11.662 3.508-16.366 2.337-4.703 5.7-8.319 10.09-10.848 4.388-2.53 9.55-3.794 15.483-3.794 6.48 0 12.674 1.408 18.58 4.224l-4.963 12.756a55.798 55.798 0 0 0-6.645-2.625c-2.214-.71-4.593-1.066-7.136-1.066z" fill="#000"/><path d="M238.003 52c1.103 0 1.997.893 1.997 2.006v147.988a2 2 0 0 1-1.997 2.006H14.997A1.998 1.998 0 0 1 13 201.994V54.006A2 2 0 0 1 14.997 52h223.006zm-12.939 15.405v121.14H27.934V67.405h197.13z" fill="#222"/></g></svg>
